X: 84
T: Polska ur Sven Donats notbok (Ma5-84)
O: Målerås, Småland
B: Sven Donats notbok, nr 84
B: Jämför [[https://katalog.visarkiv.se/lib/views/fmk/ShowRecord.aspx?id=1431726|FMK - katalog Ma5 bild 86]]
S: Sven Donat
Z: till abc av Jon Magnusson 080421
R: Slängpolska
M: 3/4
L: 1/8
K: D
Q:98
\"D\"dd/2c/2 de/2f/2 \"A\"A2|\"G\"BB/2A/2 Bc/2d/2 \"D\"F2|\"Em\"GF E2 \"G\"g2 |\"D\"f/2a/2f/2d/2 \"A\"e3/2d/2 cB/2A/2|
\"D\"dd/2c/2 de/2f/2 \"A\"A2|\"G\"BB/2A/2 Bc/2d/2 \"D\"F2|\"Em\"GF E2 \"G\"g2 |\"A\"f/2g/2e/2c/2 \"D\"d4:||:
\"D\"fd df f/2a/2f/2d/2   |\"A\"ec ce e/2a/2e/2c/2   |\"D\"d3/2c/2 \"E\"Ba^ga | \"E\"ba/2^g/2 \"A\"ae/2c/2 A2|
\"D\"dA AB/2=c/2 \"G\"B2    |\"E\"eB B^c/2d/2 \"A\"c2 |\"D\"af/2d/2 \"G\"b=g/2e/2 \"D\"af/2d/2|\"A\"g/2e/2c/2e/2 \"D\"d2 D2:|

